X:78
T: ICH WILL MICH UMSCHAUEN
N: E0685B
O: Europa, Mitteleuropa, Deutschland, Schlesien, Goldberg, Neukirch
R: Liebes - Lied, Leid, Klage, Trennung
M: 3/8
L: 1/16
K: G
G2 | B3GdB | BAA2
G2 | B3GdB | A4
AB | c2c2Ac | B2dB
G2 | A3GBA | G4
AB | c2c2Ac | B2dB
G2 | A3GBA | G4

@@@ Tune index: 4391
